X:1
T:Tread Softly
T:Tread Softly
T:William Howard Doane
T:Frances Jane (Fanny) Crosby, 1902
T:Musi Courtesy of the Cyber Hymnal™
C:William Howard Doane
Z:Musi
Z:Courtesy of the Cyber Hymnal™
%%score ( 1 2 ) ( 3 4 )
L:1/8
Q:1/4=115
M:4/4
K:Bb
V:1 treble 
V:2 treble 
V:3 bass 
V:4 bass 
V:1
 [DF]2"^Gently" | [DF]4 [B,D]2 [DB]2 | [DB]4 [DF]2 [B,D]2 | F4 [EF]2 [CF]2 | [DF]6 [DF]2 | %5
w: 1.~Be|si- lent, be|si- lent, A|whis- per is|heard, Be|
w: 2.~Be|si- lent, be|si- lent, For|ho- ly this|place, This|
w: 3.~Be|si- lent, be|si- lent, Breathe|hum- bly our|prayer, A|
w: 4.~Be|si- lent, be|si- lent, His|mer- cy re-|cord, Be|
 [EG]4 [EB]2 [CB]2 | [DB]4 [DF]2 F2 | [FA]4 [=EB]2 [EG]2 | F6 ||"^Refrain" [EF]2 | %10
w: si- lent, and|list- en, O|trea- sure each|word!||
w: al- tar that|e- choes The|mes- sage of|grace.|Tread|
w: fore- taste of|E- den This|mo- ment we|share.||
w: si- lent, be|si- lent And|wait on the|Lord.||
 [DF]4 [B,D]2 .[DF]2 | [EG]4 .[EG]2 [EG]2 | F4 [EF]2 [CF]2 | [DF]6 [DF]2 | [EG]4 .[EB]2 [CB]2 | %15
w: |||||
w: soft- ly, tread|soft- ly, The|Mas- ter is|here, Tread|soft- ly, tread|
w: |||||
w: |||||
 [DB]4 .[DF]2 [B,D]2 | F4 [EF]2 !fermata!F2 | [DF]6 |] %18
w: |||
w: soft- ly, He|bids us draw|near.|
w: |||
w: |||
V:2
 x2 | x8 | x8 | (C2 D2) x4 | x8 | x8 | x6 F2 | x8 | (F2 D2 E2) || x2 | x8 | x8 | (C2 D2) x4 | x8 | %14
 x8 | x8 | (C2 D2) F2 x2 | x6 |] %18
V:3
 [B,,B,]2 | [B,,B,]4 [B,,F,]2 [B,,F,]2 | [B,,F,]4 [B,,B,]2 [B,,F,]2 | (A,2 B,2) [F,C]2 [F,A,]2 | %4
w: ~|~ ~ ~|~ ~ ~|~ * ~ ~|
 [B,,B,]6 [B,,B,]2 | [E,B,]4 [E,G,]2 [E,_G,]2 | [B,,F,]4 [B,,B,]2 [B,,_D]2 | %7
w: ~ ~|~ ~ ~|~ ~ ~|
 [C,C]4 [C,G,]2 [C,B,]2 | (A,2 B,2 C2) || [F,A,]2 | .[B,,B,]2 .[B,,B,]2 .[B,,F,]2 .[B,,B,]2 | %11
w: ~ ~ ~|~ * *|Tread|soft- ly here, tread|
 .[E,B,]2 .[E,B,]2 .[E,B,]2 [E,B,]2 | (A,2 B,2) [F,C]2 [F,A,]2 | [B,,B,]6 [B,,B,]2 | %14
w: soft- ly here, ~|~ * ~ ~|~ Tread|
 .[E,B,]2 .[E,B,]2 .[E,G,]2 [E,_G,]2 | [B,,F,]2 [B,,F,]2 .[B,,B,]2 [B,,F,]2 | %16
w: soft- ly here, tread|soft- ly here, *|
 (A,2 B,2) [F,C]2 !fermata![F,D]2 | [B,,B,]6 |] %18
w: ||
V:4
 x2 | x8 | x8 | F,4 x4 | x8 | x8 | x8 | x8 | F,6 || x2 | x8 | x8 | F,4 x4 | x8 | x8 | x8 | F,4 x4 | %17
 x6 |] %18

